X:1
T:Rorate
T:Rorate
T:Traditional Scottish Tune
T:Public Domain Courtesy of the Cyber Hymnal™
C:Traditional Scottish Tune
Z:Public Domain
Z:Courtesy of the Cyber Hymnal™
%%score ( 1 2 ) ( 3 4 )
L:1/8
Q:1/4=105
M:4/4
K:F
V:1 treble 
V:2 treble 
V:3 bass 
V:4 bass 
V:1
 [Cc]2 | [CA]2 G>F [DF]2 GA | [Fc]2 Ac [Dd]2 [Ge][Af] | c3 z BA GF x | [CD]2 [B,G]2 [B,G]2 c>B | %5
 [CA]2 G>F [DF]2 GA | [Fc]2 Ac [Gd]2 ef | c3 z BA GF x | D2 [B,F]2 [CF]2 AB | [Fc]3 [Dd] cA GA | %10
 c>A c[Fd] c3 z | [EG]2 Ac fe dc | A2 d>e [Fd]3 [Ge] | f3 z [Fd]2 cA | [DG]2 Ac [G_e]2 d=e/f/ | %15
 c3 z BA GF x | D2 [B,F]2 [CF]2 |] %17
V:2
 x2 | x2 C2 x/ E2 x3/2 | x2 E2 x4 | G2 (C2 A) B,2 C2 | x6 C2 | x2 C2 x/ E2 x3/2 | x2 E2 x A2 x | %7
 G2 (F2 A) F2 C2 | x6 F2 | x4 F2 C2 | F3 F2 (F2 A) | x2 E2 F2 G2 | x2 G2 x4 | A2 (G2 e) x F2 | %14
 x2 F2 x F2 x | E2 (F2 A) D2 D2 | x6 |] %17
V:3
 [C,C]2 | [F,C]2 [E,C]2 [D,A,]2 [C,C]2 | [A,,C]2 [A,C]2 [F,A,]2 [E,G,][D,F,] | %3
 [E,G,]2 F,2 [D,F,]2 [A,,F,]2 x | [G,,G,]2 D,>E, [G,,D,]2 [E,G,]2 | F,2 [E,G,]2 [D,A,]2 [C,C]2 | %6
 [A,,C]2 [A,C]2 [G,B,]2 [F,C]2 | [E,C]2 [F,A,]2 [D,F,]2 [A,,F,]2 x | %8
 [B,,F,]2 [D,G,]2 [F,A,]2 [D,F,]2 | [A,,F,]3 [B,,F,] [A,,F,]2 [F,,F,]2 | %10
 [F,A,]3 [D,B,] [F,A,]2 [F,C]2 | [C,C]2 [A,,C]2 [D,A,]2 [E,G,]2 | [F,C]2 [G,B,]2 [D,A,]3 [C,C] | %13
 [F,C]2 [C,C]2 [D,A,]2 [F,A,]2 | [G,B,]2 [F,A,]2 [_E,B,]2 [B,,B,]2 | %15
 [C,G,]2 [F,A,]2 G,2 [D,A,]2 x | [B,,B,]2 [D,B,]2 [F,A,]2 |] %17
V:4
 x2 | x8 | x8 | x9 | x2 G,,2 x4 | x8 | x8 | x9 | x8 | x8 | x8 | x8 | x8 | x8 | x8 | x9 | x6 |] %17

